X:435
T: HEUT NOCH SIND WIR HIER ZU HAUS
N: E1627
O: Europa, Mitteleuropa, Deutschland
R: Staende -, Handwerker -, Gesellen - Lied; Wanderschaft
M: 4/4
L: 1/8
K: G
 | D3GG2G2 | G2FFA2z2 |
D3AA2A2 | A2GAB2z2 |
G3BB2d2 | d4B2z2 | d4B2z2 |
e3dd2c2 | c4B2z2 |
G3BB2d2 | d4B2z2 | d4B2z2 |
e3dd2c2 | c4B2z2

@@@ Tune index: 5119
